findly-builder/apps/searchassist/src/assets/icons/onboarding/my-self.svg

<svg width="52" height="52" viewBox="0 0 52 52" fill="none" xmlns="http://www.w3.org/2000/svg">
<path d="M44.4166 15.9792L48.7499 6.5C48.7499 6.5 43.3332 7.58333 41.2793 15.1126C42.2649 15.5865 43.3275 15.88 44.4166 15.9792Z" fill="#199BE2"/>
<path d="M14.0834 29.2494C14.0834 30.1065 13.8292 30.9444 13.353 31.657C12.8767 32.3697 12.1998 32.9251 11.4079 33.253C10.6159 33.581 9.74454 33.6666 8.90389 33.4993C8.06325 33.3319 7.29113 32.919 6.68519 32.3127C6.07925 31.7065 5.66671 30.9341 5.49975 30.0934C5.33279 29.2527 5.41892 28.3813 5.74723 27.5896C6.07554 26.7978 6.63129 26.1212 7.34419 25.6453C8.05709 25.1694 8.89511 24.9156 9.75225 24.916C10.9012 24.9165 12.0029 25.3733 12.8151 26.1859C13.6273 26.9985 14.0835 28.1004 14.0834 29.2494Z" fill="url(#paint0_linear_3864_42769)"/>
<path d="M24.9167 33.5833C24.9167 34.4405 24.6625 35.2784 24.1862 35.991C23.71 36.7037 23.0331 37.2591 22.2411 37.587C21.4492 37.9149 20.5778 38.0006 19.7371 37.8332C18.8965 37.6659 18.1244 37.2529 17.5184 36.6467C16.9125 36.0405 16.5 35.2681 16.333 34.4274C16.166 33.5867 16.2522 32.7153 16.5805 31.9235C16.9088 31.1318 17.4645 30.4551 18.1774 29.9792C18.8903 29.5034 19.7284 29.2496 20.5855 29.25C21.7344 29.2505 22.8361 29.7073 23.6483 30.5199C24.4605 31.3325 24.9167 32.4344 24.9167 33.5833Z" fill="#35C1F1"/>
<path d="M7.58325 44.959C7.58325 45.2804 7.48793 45.5946 7.30933 45.8619C7.13074 46.1291 6.8769 46.3374 6.57993 46.4604C6.28295 46.5833 5.95617 46.6155 5.64093 46.5527C5.32569 46.4899 5.03614 46.3351 4.80892 46.1077C4.58169 45.8804 4.42699 45.5908 4.36438 45.2755C4.30177 44.9602 4.33406 44.6335 4.45718 44.3366C4.5803 44.0396 4.78871 43.7859 5.05604 43.6075C5.32338 43.429 5.63764 43.3338 5.95907 43.334C6.38991 43.3342 6.80304 43.5055 7.10762 43.8102C7.41219 44.1149 7.58328 44.5281 7.58325 44.959Z" fill="#35C1F1"/>
<path d="M44.4167 15.709C44.4167 16.0304 44.3214 16.3446 44.1428 16.6119C43.9642 16.8791 43.7104 17.0874 43.4134 17.2104C43.1164 17.3333 42.7897 17.3655 42.4744 17.3027C42.1592 17.2399 41.8696 17.0851 41.6424 16.8577C41.4152 16.6304 41.2605 16.3408 41.1979 16.0255C41.1353 15.7102 41.1676 15.3835 41.2907 15.0866C41.4138 14.7896 41.6222 14.5359 41.8895 14.3575C42.1569 14.179 42.4711 14.0838 42.7926 14.084C43.2234 14.0842 43.6365 14.2555 43.9411 14.5602C44.2457 14.8649 44.4168 15.2781 44.4167 15.709Z" fill="#35C1F1"/>
<path d="M33.5834 30.3333C33.5834 31.1905 33.3292 32.0284 32.853 32.741C32.3767 33.4537 31.6998 34.0091 30.9079 34.337C30.1159 34.6649 29.2445 34.7506 28.4039 34.5832C27.5633 34.4159 26.7911 34.0029 26.1852 33.3967C25.5792 32.7905 25.1667 32.0181 24.9997 31.1774C24.8328 30.3367 24.9189 29.4653 25.2472 28.6735C25.5755 27.8818 26.1313 27.2051 26.8442 26.7292C27.5571 26.2534 28.3951 25.9996 29.2523 26C30.4012 26.0005 31.5029 26.4573 32.3151 27.2699C33.1273 28.0825 33.5835 29.1844 33.5834 30.3333Z" fill="#35C1F1"/>
<path d="M7.05473 46.1584L18.4167 36.8341L17.4699 30.5703L4.87939 43.7436L7.05473 46.1584Z" fill="#35C1F1"/>
<path d="M30.8857 34.3486L22.0815 37.6517L19.2432 29.4617L27.7062 26.2832L30.8857 34.3486Z" fill="#35C1F1"/>
<path d="M29.0019 25.8065L19.3204 29.4778C18.7158 29.7071 18.0456 29.6916 17.4522 29.4345C16.8588 29.1774 16.3891 28.699 16.1429 28.1011C16.0162 27.7933 15.9526 27.4632 15.9559 27.1303C15.9593 26.7975 16.0295 26.4688 16.1624 26.1636C16.2953 25.8584 16.4881 25.5831 16.7295 25.3539C16.9709 25.1248 17.2559 24.9464 17.5676 24.8296L27.1843 21.2233C27.4477 21.1245 27.7391 21.1321 27.9971 21.2443C28.255 21.3566 28.4591 21.5648 28.5663 21.8249L29.6194 24.3808C29.6746 24.5147 29.7024 24.6584 29.7011 24.8032C29.6998 24.9481 29.6694 25.0912 29.6119 25.2241C29.5543 25.3571 29.4706 25.4771 29.3659 25.5771C29.2611 25.6771 29.1373 25.7551 29.0019 25.8065Z" fill="url(#paint1_linear_3864_42769)"/>
<path d="M41.2795 15.1133L36.8334 22.7507L31.436 26.5913L32.4828 33.22L39.893 25.1562C40.0349 25.0017 40.1536 24.8275 40.2455 24.6389L44.3006 16.3136L41.2795 15.1133Z" fill="#35C1F1"/>
<defs>
<linearGradient id="paint0_linear_3864_42769" x1="9.75008" y1="22.29" x2="9.75008" y2="35.6443" gradientUnits="userSpaceOnUse">
<stop stop-color="#FFCF54"/>
<stop offset="0.261" stop-color="#FDCB4D"/>
<stop offset="0.639" stop-color="#F7C13A"/>
<stop offset="1" stop-color="#F0B421"/>
</linearGradient>
<linearGradient id="paint1_linear_3864_42769" x1="21.854" y1="23.4138" x2="24.662" y2="31.1499" gradientUnits="userSpaceOnUse">
<stop stop-color="#FED100"/>
<stop offset="1" stop-color="#E38101"/>
</linearGradient>
</defs>
</svg>

<svg width="52" height="52" fill="none" xmlns="http://www.w3.org/2000/svg"><path d="M44.417 15.98 48.75 6.5s-5.417 1.083-7.47 8.613a9.157 9.157 0 0 0 3.137.866Z" fill="#199BE2"/><path d="M14.083 29.25a4.333 4.333 0 1 1-8.666 0 4.333 4.333 0 0 1 8.666 0Z" fill="url(#a)"/><path d="M24.917 33.583a4.333 4.333 0 1 1-8.666 0 4.333 4.333 0 0 1 8.666 0ZM7.583 44.959a1.625 1.625 0 1 1-3.25 0 1.625 1.625 0 0 1 3.25 0Zm36.834-29.25a1.625 1.625 0 1 1-3.25 0 1.625 1.625 0 0 1 3.25 0ZM33.583 30.333a4.333 4.333 0 1 1-8.666 0 4.333 4.333 0 0 1 8.666 0Z" fill="#35C1F1"/><path d="m7.055 46.158 11.362-9.324-.947-6.264L4.88 43.744l2.175 2.414Zm23.831-11.809-8.805 3.303-2.838-8.19 8.463-3.179 3.18 8.066Z" fill="#35C1F1"/><path d="m29.002 25.806-9.682 3.672a2.484 2.484 0 1 1-1.752-4.648l9.616-3.607a1.084 1.084 0 0 1 1.382.602l1.053 2.556a1.083 1.083 0 0 1-.617 1.425Z" fill="url(#b)"/><path d="m41.28 15.113-4.447 7.638-5.397 3.84 1.047 6.629 7.41-8.064a2.17 2.17 0 0 0 .352-.517l4.056-8.325-3.022-1.2Z" fill="#35C1F1"/><defs><linearGradient id="a" x1="9.75" y1="22.29" x2="9.75" y2="35.644" gradientUnits="userSpaceOnUse"><stop stop-color="#FFCF54"/><stop offset=".261" stop-color="#FDCB4D"/><stop offset=".639" stop-color="#F7C13A"/><stop offset="1" stop-color="#F0B421"/></linearGradient><linearGradient id="b" x1="21.854" y1="23.414" x2="24.662" y2="31.15" gradientUnits="userSpaceOnUse"><stop stop-color="#FED100"/><stop offset="1" stop-color="#E38101"/></linearGradient></defs></svg>
